src/img/first-screen/oak-leave.svg

<svg width="315" height="376" viewBox="0 0 315 376" fill="none" xmlns="http://www.w3.org/2000/svg">
<g opacity="0.35">
<path opacity="0.35" d="M164.162 64.5071C198.588 57.8094 209.241 5.08214 243.989 0.313714C258.812 -1.72542 273.555 6.47816 283.243 17.8424C292.931 29.2066 298.584 43.41 304.04 57.3231C309.897 72.1538 315.762 87.4708 314.922 103.337C314.081 119.203 304.519 135.775 289.069 139.508C274.553 143.021 257.084 135.218 245.41 144.519C235.691 152.252 236.484 167.515 241.571 178.84C246.659 190.165 255.043 200.015 258.317 211.991C260.16 218.737 260.276 225.837 258.653 232.638C257.03 239.44 253.72 245.725 249.029 250.914C244.338 256.103 238.416 260.031 231.807 262.335C225.199 264.639 218.117 265.245 211.212 264.099C205.073 263.079 198.91 260.687 192.818 261.942C182.776 264.005 177.194 275.228 176.637 285.47C176.08 295.713 178.992 305.862 178.906 316.057C178.662 341.578 158.58 364.314 134.29 372.22C109.999 380.125 82.843 374.988 60.2562 363.067C37.6693 351.146 19.0236 332.99 1.99514 313.963C-21.8086 287.361 -43.9322 256.632 -47.6692 221.167C-51.4062 185.702 -30.311 145.508 4.8764 139.39C22.9333 136.253 44.633 141.178 57.4063 128.018C74.2699 110.662 59.7616 77.0399 77.0334 60.0132C87.8362 49.3548 105.626 51.1587 120.064 55.833C134.502 60.5073 149.261 67.4482 164.162 64.5071Z" fill="url(#paint0_linear_21_325)"/>
<path opacity="0.35" d="M251.502 67.0874C249.932 69.205 112.786 254.954 -85 334.59L-82.7311 340.621C116.939 260.24 255.161 73.0166 256.723 70.8755L251.502 67.0874Z" fill="white"/>
<path opacity="0.35" d="M218.801 201.223L122.221 205.671L122.518 212.111L219.098 207.663L218.801 201.223Z" fill="white"/>
<path opacity="0.35" d="M111.511 111.923L75.0801 241.833L81.2942 243.572L117.725 113.662L111.511 111.923Z" fill="white"/>
<path opacity="0.35" d="M143.797 302.121L32.2446 279.165L26.592 170.173L20.1465 170.511L26.0582 284.474L142.486 308.434L143.797 302.121Z" fill="white"/>
</g>
<defs>
<linearGradient id="paint0_linear_21_325" x1="202.405" y1="342.192" x2="92.3803" y2="46.3952" gradientUnits="userSpaceOnUse">
<stop stop-color="#F9C8C3"/>
<stop offset="1" stop-color="#FCE4E2"/>
</linearGradient>
</defs>
</svg>

<svg xmlns="http://www.w3.org/2000/svg" width="315" height="376" fill="none" viewBox="0 0 315 376"><g opacity=".35"><path d="M164.162 64.507c34.426-6.698 45.08-59.425 79.827-64.193 14.823-2.04 29.566 6.164 39.254 17.528 9.688 11.365 15.341 25.568 20.797 39.481 5.857 14.83 11.722 30.148 10.882 46.014-.841 15.866-10.403 32.438-25.853 36.171-14.516 3.513-31.985-4.29-43.66 5.01-9.72 7.734-8.93 22.997-3.84 34.322 5.084 11.325 13.47 21.175 16.742 33.151a41.654 41.654 0 0 1-9.288 38.923 41.738 41.738 0 0 1-17.222 11.42 41.779 41.779 0 0 1-20.595 1.765c-6.14-1.02-12.302-3.412-18.394-2.157-10.042 2.063-15.624 13.286-16.181 23.528-.557 10.243 2.355 20.392 2.27 30.587-.245 25.52-20.327 48.257-44.617 56.163-24.29 7.905-51.448 2.768-74.035-9.153-22.587-11.92-41.232-30.077-58.26-49.104-23.804-26.602-45.927-57.331-49.664-92.796-3.737-35.465 17.358-75.659 52.545-81.777 18.057-3.137 39.757 1.788 52.53-11.372 16.864-17.356 2.356-50.978 19.627-68.005 10.803-10.658 28.593-8.854 43.03-4.18 14.44 4.674 29.198 11.615 44.1 8.674Z" fill="url(#a)" opacity=".35"/><path d="M251.502 67.087C249.932 69.205 112.786 254.954-85 334.59l2.269 6.031c199.67-80.38 337.892-267.604 339.454-269.745l-5.221-3.79Z" fill="#fff" opacity=".35"/><path d="m218.801 201.223-96.58 4.448.3 6.44 96.58-4.448-.294-6.44Zm-107.29-89.3-36.43 129.91 6.219 1.74 36.43-129.91-6.214-1.74Z" fill="#fff" opacity=".35"/><path d="M143.797 302.121 32.245 279.165l-5.653-108.992-6.445.338 5.911 113.963 116.428 23.96 1.311-6.313Z" fill="#fff" opacity=".35"/></g><defs><linearGradient id="a" x1="202.405" x2="92.38" y1="342.192" y2="46.395" gradientUnits="userSpaceOnUse"><stop stop-color="#F9C8C3"/><stop offset="1" stop-color="#FCE4E2"/></linearGradient></defs></svg>
